X:426
T:Memories of St. Paul Island
M:3/4
L:1/8
K:Amix
E|:"A"A3 B cA|"D"d3 e fd|"A"e2 A2 A2|A3 d cB|
"A"A2 AB cA|"D"d3 e fd|"A"e2 A2 {A}B2|"G"=G3 d cB|
"A"A3 B cA|"D"d3 e Tfd|"A"e2 A2 A2|{A}a3 c BA|
"G"=G3 (A B)c| "D"d3 e fd|"A"e2 A2 A2|[1 A4 AE :|[2 A3 A TBA|
"G"=G3 d dc|"D"d3 Td cd|"A"e2 a2 a2|{b}a3 a ga|
"G"b3 b ag|"Em"Te2 ed cd|"A"e2 A2 A2 |A3 A BA |
"G"=G3 d dc|"D"d3 Td cd|"A"e2 a2 a2|{b}a3 a ^ga|
"G"ba^gba=g|"Em"e3 d ((3Bcd)|"A"e2 A2 A2|A4|]


